static/dist/images/icons/dribbble.svg

<svg xmlns="http://www.w3.org/2000/svg" viewBox="0 0 20 20"><path d="M9.565 7.421C8.207 5.007 6.754 3.038 6.648 2.893A7.876 7.876 0 0 0 2.311 8.38c.206.004 3.482.043 7.254-.959zm.978 2.64a11 11 0 0 1 .309-.094 26.219 26.219 0 0 0-.637-1.336C6.169 9.843 2.287 9.755 2.15 9.751c-.003.084-.007.166-.007.25 0 2.019.763 3.861 2.016 5.252l-.005-.006s2.15-3.814 6.389-5.186zm-5.372 6.133v-.004c-.058-.045-.12-.086-.178-.135.106.085.178.139.178.139zM8.118 2.372a.546.546 0 0 1-.015.004c.006-.002.014-.002.014-.002l.001-.002zm7.071 1.732A7.83 7.83 0 0 0 10 2.143c-.639 0-1.258.078-1.852.221.12.16 1.595 2.119 2.938 4.584 2.962-1.109 4.081-2.812 4.103-2.844zM10 19.2a9.2 9.2 0 0 1-9.199-9.199A9.199 9.199 0 0 1 10 .8a9.2 9.2 0 0 1 9.2 9.201A9.2 9.2 0 0 1 10 19.2zm1.336-7.914c-4.611 1.607-6.134 4.838-6.165 4.904a7.818 7.818 0 0 0 4.828 1.666 7.83 7.83 0 0 0 3.067-.621c-.116-.689-.573-3.096-1.679-5.967a1.464 1.464 0 0 1-.051.018zm.354-3.166c.184.373.358.754.523 1.139.059.135.114.272.17.406 2.713-.342 5.385.238 5.473.256a7.84 7.84 0 0 0-1.787-4.912c-.018.023-1.279 1.843-4.379 3.111zm1.171 2.785c1.031 2.836 1.449 5.142 1.529 5.611a7.858 7.858 0 0 0 3.367-5.27c-.156-.05-2.356-.747-4.896-.341z"/></svg>

<?xml version="1.0" encoding="utf-8"?>
<!-- Generator: Adobe Illustrator 18.1.1, SVG Export Plug-In . SVG Version: 6.00 Build 0)  -->
<!DOCTYPE svg PUBLIC "-//W3C//DTD SVG 1.1//EN" "http://www.w3.org/Graphics/SVG/1.1/DTD/svg11.dtd">
<svg version="1.1" id="Dribbble" xmlns="http://www.w3.org/2000/svg" xmlns:xlink="http://www.w3.org/1999/xlink" x="0px" y="0px"
	 viewBox="0 0 20 20" enable-background="new 0 0 20 20" xml:space="preserve">
<path d="M9.565,7.421C8.207,5.007,6.754,3.038,6.648,2.893C4.457,3.929,2.822,5.948,2.311,8.38C2.517,8.384,5.793,8.423,9.565,7.421
	z M10.543,10.061c0.102-0.033,0.206-0.064,0.309-0.094c-0.197-0.447-0.412-0.895-0.637-1.336C6.169,9.843,2.287,9.755,2.15,9.751
	c-0.003,0.084-0.007,0.166-0.007,0.25c0,2.019,0.763,3.861,2.016,5.252l-0.005-0.006C4.154,15.247,6.304,11.433,10.543,10.061z
	 M5.171,16.194V16.19c-0.058-0.045-0.12-0.086-0.178-0.135C5.099,16.14,5.171,16.194,5.171,16.194z M8.118,2.372
	C8.111,2.374,8.103,2.376,8.103,2.376c0.006-0.002,0.014-0.002,0.014-0.002L8.118,2.372z M15.189,4.104
	C13.805,2.886,11.99,2.143,10,2.143c-0.639,0-1.258,0.078-1.852,0.221c0.12,0.16,1.595,2.119,2.938,4.584
	C14.048,5.839,15.167,4.136,15.189,4.104z M10,19.2c-5.08,0-9.199-4.119-9.199-9.199C0.8,4.919,4.919,0.8,10,0.8
	c5.082,0,9.2,4.119,9.2,9.201C19.2,15.081,15.082,19.2,10,19.2z M11.336,11.286c-4.611,1.607-6.134,4.838-6.165,4.904
	c1.334,1.041,3.006,1.666,4.828,1.666c1.088,0,2.125-0.221,3.067-0.621c-0.116-0.689-0.573-3.096-1.679-5.967
	C11.371,11.274,11.354,11.28,11.336,11.286z M11.69,8.12c0.184,0.373,0.358,0.754,0.523,1.139c0.059,0.135,0.114,0.272,0.17,0.406
	c2.713-0.342,5.385,0.238,5.473,0.256c-0.019-1.863-0.686-3.572-1.787-4.912C16.051,5.032,14.79,6.852,11.69,8.12z M12.861,10.905
	c1.031,2.836,1.449,5.142,1.529,5.611c1.764-1.191,3.018-3.08,3.367-5.27C17.601,11.196,15.401,10.499,12.861,10.905z"/>
</svg>
